X: 245
T: Xiao guafu Shangfen
%%abc-version 2.0
%%abcx-abcm2ps-target-version 5.9.1 (29 Sep 2008)
%%abc-creator hum2abc beta
%%abcx-conversion-date 2013/10/02 07:52:29
%%abc-edited-by Helmut Schaffrath
%%humdrum-veritas 853804815
%%humdrum-veritas-data 3305294747
%%continueall 1
%%barnumbers 0
L: 1/8
M: 2/4
K: G
d2A A [I:setbarnb 1]| 
d2e g | 
d2A d | 
dA2G | 
EG2A | 
Ad2A | 
G2A E | 
d4 | 
d EG2 | 
zA2d | 
d2A G | 
AE2D | 
GG2A | 
Ad2A | 
G G A E | 
D4 | 
GG2B | 
A2E D | 
GG2A | 
d2d A | 
G G A E | 
D4 |]  



